svgs/duotone/list-check.svg

<svg xmlns="http://www.w3.org/2000/svg" viewBox="0 0 512 512"><!--! Font Awesome Pro 6.0.0-alpha3 by @fontawesome - https://fontawesome.com License - https://fontawesome.com/license (Commercial License) --><defs><style>.fa-secondary{opacity:.4}</style></defs><path class="fa-primary" d="M118.2 199.9L63.09 261.1l-22.12-22.11c-9.375-9.375-24.56-9.375-33.94 0s-9.375 24.56 0 33.94l40 40C51.53 317.5 57.66 320 63.1 320c.2187 0 .4065 0 .6253-.0156c6.594-.1719 12.81-3.031 17.22-7.922l72-80c8.875-9.859 8.062-25.03-1.781-33.91C142.2 189.3 127.1 190.1 118.2 199.9zM118.2 39.94L63.09 101.1l-22.12-22.11c-9.375-9.375-24.56-9.375-33.94 0s-9.375 24.56 0 33.94l40 40C51.53 157.5 57.66 160 63.1 160c.2187 0 .4065 0 .6253-.0156c6.594-.1719 12.81-3.031 17.22-7.922l72-80c8.875-9.859 8.062-25.03-1.781-33.91C142.2 29.31 127.1 30.09 118.2 39.94zM48 367.1c-26.51 0-48 21.49-48 48c0 26.51 21.49 48 48 48s48-21.49 48-48C96 389.5 74.51 367.1 48 367.1z"/><path class="fa-secondary" d="M256 128h224c17.67 0 32-14.33 32-32s-14.33-32-32-32h-224C238.3 64 224 78.33 224 96S238.3 128 256 128zM480 224h-224C238.3 224 224 238.3 224 256s14.33 32 32 32h224c17.67 0 32-14.33 32-32S497.7 224 480 224zM480 384H192c-17.67 0-32 14.33-32 32s14.33 32 32 32h288c17.67 0 32-14.33 32-32S497.7 384 480 384z"/></svg>

<svg xmlns="http://www.w3.org/2000/svg" viewBox="0 0 512 512"><!-- Font Awesome Pro 6.0.0-alpha2 by @fontawesome - https://fontawesome.com License - https://fontawesome.com/license (Commercial License) --><defs><style>.fa-secondary{opacity:.4}</style></defs><path d="M256 128H480C497.674 128 512 113.674 512 96S497.674 64 480 64H256C238.326 64 224 78.326 224 96S238.326 128 256 128ZM480 224H256C238.326 224 224 238.326 224 256S238.326 288 256 288H480C497.674 288 512 273.674 512 256S497.674 224 480 224ZM480 384H192C174.326 384 160 398.326 160 416S174.326 448 192 448H480C497.674 448 512 433.674 512 416S497.674 384 480 384Z" class="fa-secondary"/><path d="M118.15 199.938L63.088 261.141L40.963 239.031C31.588 229.656 16.4 229.656 7.025 239.031S-2.35 263.594 7.025 272.969L47.025 312.969C51.525 317.484 57.65 320 63.994 320C64.213 320 64.4 320 64.619 319.984C71.213 319.812 77.432 316.953 81.838 312.062L153.838 232.062C162.713 222.203 161.9 207.031 152.057 198.156C142.213 189.312 127.057 190.094 118.15 199.938ZM118.15 39.938L63.088 101.141L40.963 79.031C31.588 69.656 16.4 69.656 7.025 79.031S-2.35 103.594 7.025 112.969L47.025 152.969C51.525 157.484 57.65 160 63.994 160C64.213 160 64.4 160 64.619 159.984C71.213 159.812 77.432 156.953 81.838 152.062L153.838 72.062C162.713 62.203 161.9 47.031 152.057 38.156C142.213 29.312 127.057 30.094 118.15 39.938ZM48 367.998C21.49 367.998 0 389.49 0 415.998C0 442.508 21.49 464 48 464S96 442.508 96 415.998C96 389.49 74.51 367.998 48 367.998Z" class="fa-primary"/></svg>
